X: 1636
T: The Jolly Jig
B: australian traditional tunes wiki
M:6/8
L:1/8
R: Galop
Q: 3/8=100
K:G
V:1 
"G" g>dd d>BB | B>GG G>DD |"Am" E>EE A2 B | c3 a3 |"D7" a>ff f>dd |
d>cc c2 D |1 "C"G>GG "A7"A>Bc | "G"d3 z3:|2 D>"D7"DD c>BA |"G" G3 z Bd ||
|:"D7" d>cA F2 d | d>cA"G" G2 d |"D7" d>cA F2 A | d>cA"G" G2 d |
"D7" d>cA"Am" c>BA |  "D7" d>cA"Am" c>BA |"G" G>AB "D7"c>ef |1 "G" g2 A c>BA:|2"G" g2 z ||
zGE |:"G" D2 B B>GE | D2 B B>GE |  D>EF G>AB |"D7" c3 z GE |
"D7" D2 c c>AF | D2 c c>AF |1 "G"G>AB "D7"c>ef | "G"g2 d B>GE:|2  "G" d>ed"D7" c>BA |"G" G3 z3 |]
% abcbook-tune_id 6342d53ac35bc652be6eb3a1


% abcbook-boost 0
% abcbook-tablature 
% abcbook-transpose 
% abcbook-lastupdated 1665324375286
% abcbook-soundfonts 
% abcbook-repeats 1
% NFF Book 2017

